assets/images/docker.svg

<svg width="33" height="24" viewBox="0 0 33 24" fill="none" xmlns="http://www.w3.org/2000/svg">
<path d="M19.2266 10.7151H22.1403C22.2078 10.7151 22.2727 10.688 22.3206 10.6397C22.3685 10.5914 22.3956 10.5258 22.396 10.4573V7.82763C22.396 7.75888 22.3691 7.69296 22.3211 7.64435C22.2731 7.59574 22.2081 7.56843 22.1403 7.56843H19.2266C19.1592 7.56843 19.0945 7.59559 19.0468 7.64394C18.9991 7.69229 18.9723 7.75786 18.9723 7.82624V10.4573C18.9723 10.5994 19.0864 10.7151 19.2266 10.7151ZM15.1649 3.14805H18.0771C18.145 3.14805 18.21 3.12074 18.258 3.07213C18.3059 3.02353 18.3329 2.9576 18.3329 2.88885V0.257809C18.3325 0.189306 18.3054 0.123734 18.2575 0.0754252C18.2096 0.0271164 18.1447 -9.90036e-07 18.0771 0H15.1649C15.0974 0 15.0327 0.0271621 14.985 0.0755106C14.9373 0.123859 14.9105 0.189434 14.9105 0.257809V2.88885C14.9105 3.03099 15.0233 3.14666 15.1649 3.14666V3.14805ZM15.1649 6.93157H18.0771C18.1449 6.9312 18.2097 6.90378 18.2576 6.85525C18.3055 6.80672 18.3325 6.741 18.3329 6.67237V4.04272C18.3325 3.97422 18.3054 3.90864 18.2575 3.86034C18.2096 3.81203 18.1447 3.78491 18.0771 3.78491H15.1649C15.0974 3.78491 15.0327 3.81207 14.985 3.86042C14.9373 3.90877 14.9105 3.97434 14.9105 4.04272V6.67237C14.9105 6.81451 15.0233 6.93018 15.1649 6.93157ZM11.1361 6.93157H14.0511C14.1185 6.93084 14.1828 6.9032 14.2302 6.85467C14.2776 6.80614 14.3041 6.74063 14.3041 6.67237V4.04272C14.3041 3.97434 14.2773 3.90877 14.2296 3.86042C14.1819 3.81207 14.1172 3.78491 14.0498 3.78491H11.1375C11.0701 3.78491 11.0054 3.81207 10.9576 3.86042C10.9099 3.90877 10.8831 3.97434 10.8831 4.04272V6.67237C10.8831 6.81451 10.9973 6.93018 11.1375 6.93157H11.1361ZM7.06202 6.93157H9.97564C10.0432 6.9312 10.1079 6.90373 10.1556 6.85516C10.2033 6.80659 10.23 6.74087 10.23 6.67237V4.04272C10.23 3.97434 10.2032 3.90877 10.1555 3.86042C10.1078 3.81207 10.0431 3.78491 9.97564 3.78491H7.06202C6.99443 3.78491 6.92958 3.81203 6.88166 3.86034C6.83374 3.90864 6.80663 3.97422 6.80627 4.04272V6.67237C6.80627 6.81451 6.92177 6.93018 7.06202 6.93157ZM15.1649 10.7151H18.0771C18.1447 10.7151 18.2096 10.688 18.2575 10.6397C18.3054 10.5914 18.3325 10.5258 18.3329 10.4573V7.82763C18.3329 7.75888 18.3059 7.69296 18.258 7.64435C18.21 7.59574 18.145 7.56843 18.0771 7.56843H15.1649C15.0974 7.56843 15.0327 7.59559 14.985 7.64394C14.9373 7.69229 14.9105 7.75786 14.9105 7.82624V10.4573C14.9105 10.5994 15.0233 10.7151 15.1649 10.7151ZM11.1361 10.7151H14.0511C14.1184 10.7147 14.1827 10.6874 14.2301 10.6391C14.2775 10.5908 14.3041 10.5254 14.3041 10.4573V7.82763C14.3043 7.79377 14.2979 7.76021 14.2853 7.72886C14.2727 7.69752 14.2541 7.66899 14.2306 7.64492C14.2071 7.62085 14.1792 7.60171 14.1484 7.58858C14.1176 7.57546 14.0845 7.56861 14.0511 7.56843H11.1361C11.0689 7.5688 11.0046 7.59612 10.9572 7.64443C10.9098 7.69274 10.8831 7.7581 10.8831 7.82624V10.4573C10.8831 10.5994 10.9973 10.7151 11.1375 10.7151H11.1361ZM7.06202 10.7151H9.97564C10.0431 10.7151 10.1078 10.6879 10.1555 10.6396C10.2032 10.5912 10.23 10.5257 10.23 10.4573V7.82763C10.2302 7.79377 10.2238 7.76021 10.2112 7.72886C10.1986 7.69752 10.18 7.66899 10.1565 7.64492C10.133 7.62085 10.1051 7.60171 10.0743 7.58858C10.0435 7.57546 10.0104 7.56861 9.97702 7.56843H7.06202C6.99419 7.56843 6.92914 7.59574 6.88118 7.64435C6.83321 7.69296 6.80627 7.75888 6.80627 7.82763V10.4573C6.80627 10.5994 6.92177 10.7151 7.06202 10.7151ZM3.04702 10.7151H5.96202C6.02925 10.7147 6.09359 10.6874 6.141 10.6391C6.18841 10.5908 6.21502 10.5254 6.21502 10.4573V7.82763C6.2152 7.79377 6.2088 7.76021 6.19618 7.72886C6.18357 7.69752 6.16498 7.66899 6.14149 7.64492C6.11799 7.62085 6.09005 7.60171 6.05926 7.58858C6.02847 7.57546 5.99542 7.56861 5.96202 7.56843H3.04702C2.9798 7.5688 2.91545 7.59612 2.86804 7.64443C2.82063 7.69274 2.79402 7.7581 2.79402 7.82624V10.4573C2.79402 10.5994 2.90677 10.7151 3.0484 10.7151H3.04702ZM32.6741 9.05954C32.5848 8.98847 31.7501 8.34882 29.9874 8.34882C29.5226 8.35021 29.0579 8.39063 28.5986 8.47006C28.2576 6.10101 26.3258 4.94435 26.2391 4.89418L25.7661 4.61687L25.4554 5.07256C25.0649 5.68294 24.7816 6.35742 24.6139 7.06535C24.2976 8.41711 24.4901 9.68803 25.168 10.7736C24.3499 11.2363 23.0368 11.3492 22.77 11.3589H1.03265C0.75973 11.3593 0.498054 11.4691 0.304814 11.6645C0.111575 11.8598 0.00248839 12.1247 0.00139841 12.4013C-0.0240643 14.3311 0.298391 16.2495 0.952898 18.0619C1.70227 20.0519 2.81602 21.518 4.26665 22.4154C5.88914 23.423 8.52914 23.9999 11.5198 23.9999C12.8714 24.0041 14.2189 23.8801 15.5485 23.6292C17.3949 23.2854 19.1716 22.6312 20.8051 21.6936C22.1526 20.9034 23.3626 19.8987 24.3939 18.7169C26.1154 16.7408 27.1411 14.5404 27.9043 12.5852H28.2081C30.0946 12.5852 31.2538 11.8202 31.8931 11.1791C32.318 10.7708 32.6494 10.2733 32.8652 9.72148L33 9.32013L32.6741 9.05954Z" fill="#626262"/>
</svg>

<svg width="33" height="24" viewBox="0 0 33 24" fill="none" xmlns="http://www.w3.org/2000/svg"><path d="M19.227 10.715h2.913a.254.254 0 0 0 .18-.075.261.261 0 0 0 .076-.183v-2.63a.26.26 0 0 0-.075-.183.254.254 0 0 0-.18-.076h-2.914a.253.253 0 0 0-.18.076.26.26 0 0 0-.075.182v2.631c0 .142.114.258.255.258Zm-4.062-7.567h2.912a.254.254 0 0 0 .181-.076.261.261 0 0 0 .075-.183V.258a.261.261 0 0 0-.075-.183.254.254 0 0 0-.18-.075h-2.913a.253.253 0 0 0-.18.076.26.26 0 0 0-.074.182v2.63c0 .143.112.259.254.259v.001Zm0 3.784h2.912a.255.255 0 0 0 .18-.077.262.262 0 0 0 .076-.183v-2.63a.261.261 0 0 0-.075-.182.254.254 0 0 0-.18-.075h-2.913a.253.253 0 0 0-.18.075.26.26 0 0 0-.074.183v2.63c0 .142.112.257.254.259Zm-4.029 0h2.915a.254.254 0 0 0 .18-.077.26.26 0 0 0 .073-.183v-2.63a.26.26 0 0 0-.074-.182.253.253 0 0 0-.18-.075h-2.913a.253.253 0 0 0-.18.075.26.26 0 0 0-.074.183v2.63c0 .142.114.257.255.259h-.002Zm-4.074 0h2.914a.254.254 0 0 0 .18-.077.26.26 0 0 0 .074-.183v-2.63a.26.26 0 0 0-.075-.182.253.253 0 0 0-.18-.075H7.063a.254.254 0 0 0-.18.075.26.26 0 0 0-.076.183v2.63a.26.26 0 0 0 .256.259Zm8.103 3.783h2.912a.254.254 0 0 0 .18-.075.261.261 0 0 0 .076-.183v-2.63a.261.261 0 0 0-.075-.183.254.254 0 0 0-.18-.076h-2.913a.253.253 0 0 0-.18.076.26.26 0 0 0-.074.182v2.631c0 .142.112.258.254.258Zm-4.029 0h2.915a.253.253 0 0 0 .18-.076.26.26 0 0 0 .073-.182v-2.63a.26.26 0 0 0-.156-.238.252.252 0 0 0-.097-.02h-2.915a.253.253 0 0 0-.179.075.26.26 0 0 0-.074.182v2.631c0 .142.114.258.255.258h-.002Zm-4.074 0h2.914a.253.253 0 0 0 .18-.075.26.26 0 0 0 .074-.183v-2.63a.26.26 0 0 0-.156-.238.252.252 0 0 0-.097-.02H7.062a.254.254 0 0 0-.18.075.26.26 0 0 0-.076.184v2.63c0 .141.116.257.256.257Zm-4.015 0h2.915a.253.253 0 0 0 .179-.076.26.26 0 0 0 .074-.182v-2.63a.26.26 0 0 0-.156-.238.251.251 0 0 0-.097-.02H3.047a.253.253 0 0 0-.179.075.26.26 0 0 0-.074.182v2.631c0 .142.113.258.254.258h-.001ZM32.674 9.06c-.09-.072-.924-.711-2.687-.711-.464.001-.93.042-1.388.121-.341-2.369-2.273-3.526-2.36-3.576l-.473-.277-.31.456a6.46 6.46 0 0 0-.842 1.992c-.316 1.352-.124 2.623.554 3.709-.818.462-2.131.575-2.398.585H1.033c-.273 0-.535.11-.728.306-.193.195-.303.46-.304.736-.025 1.93.297 3.849.952 5.66.75 1.99 1.863 3.457 3.314 4.354C5.889 23.423 8.529 24 11.52 24c1.351.004 2.699-.12 4.029-.37a16.7 16.7 0 0 0 5.256-1.936 14.493 14.493 0 0 0 3.589-2.977c1.721-1.976 2.747-4.177 3.51-6.132h.304c1.887 0 3.046-.765 3.685-1.406a4.08 4.08 0 0 0 .972-1.458l.135-.4-.326-.261Z" fill="#626262"/></svg>
